X:1
%
T:Ribbonman's March
M:2/4
L:1/8
R:March
N:Stanford thought it might be possible that all the high
N:'g' notes in the second part were natural.
B:Stanford/Petrie - Complete Collection (1905, No. 993)
Z:AK/Fiddler's Companion
K:A
E|A>B cd|e>f ed|cA d/c/B/A/|GE E>G|
A>B cd|e>f ed|cA B/c/d/B/|cAA||
f|=g>a ef|=g>a ge|cA d/c/B/A/|GE E2|
g>e ef|g>a ge|cA B/c/d/B/|cA A>f|
g>e ef|g>a ge|cA d/c/B/A/|GE E>E|
A/G/A/B/ cd|e/d/e/f/ e/d/c/B/|cA B/c/d/B/|cAA||

